X:9
T:Le chevalier du guet
T:Compagnon de la marjolaine - Qui est-ce qui passe ici si tard ?
C:Paroles et musique : tradition du milieu du XVIIe siècle
Z:Transcrit et/ou corrigé par Michel BELLON - 2006-04-28
Z:Pour toute observation mailto:galouvielle@free.fr
M:6/8
L:1/8
K:Em
"Em"z3 E2E | "G"B2B A2B | "Em"G3 F2G | "D"A2A/A/ G2A |
"Em"B2G E2E | "G"B2B A2B | "Em"G3 A3 | "B7"B3 FGF | "Em"E3 z3 |]

%%footer $D   Galouvielle-MBe 2006 \n-- (--)
